X: 21202
T: PEA STRAE
R: reel
B: K\"ohler's Violin Repository, v.2, 1885 p.120 #2
F: http://www.archive.org/details/klersviolinrepos02rugg
Z: 2012 John Chambers <jc:trillian.mit.edu>
M: 2/4
L: 1/16
K: D
((3uABc) | d2(fd) gefd | e=cAB c2((3AB^c) | d2(fd) gefd | egfe d2 :|
|: (ufg) | afdf afdf | e=cAB c2(fg) | [1 afdf afdf | egfe d2 :|[2 a(fg)(e f)(de)(c | A)gfe d2 "_D.C."|]

%%sep 2 1 500

